X: 31
T: No_38_Cheyenne_Hand-Game_Song_(b).krn
N: Derived from No_38_Cheyenne_Hand-Game_Song_(b).krn
%%abc-version 2.0
%%abcx-abcm2ps-target-version 5.9.1 (29 Sep 2008)
%%abc-creator hum2abc beta
%%abcx-conversion-date 2019/03/15 08:27:55
%%humdrum-veritas 3105564966
%%humdrum-veritas-data 940774981
%%linebreak <none>
%%barnumbers 0
L: 1/8
M: 3/4
K: Ab clef=treble
[K:clef=treble][M:3/4]cA Ac AG | 
[M:2/4]A2z c | 
AF FE | 
E2E2 | 
E/ z/ A AF | 
A2A2 | 
z c AF | 
[M:3/4]E2E2z G | 
[M:2/4]FF AF | 
[M:3/4]E2z3A | 
[M:2/4]FE EC | 
C2C2 | 
C/ z/ E C z | 
C2C2 | 
C/ z/ E C z | 
C2C2 | 
C2z2 |]  



